svgs/sharp-light/shirt-tank-top.svg

<svg xmlns="http://www.w3.org/2000/svg" viewBox="0 0 384 512"><!--! Font Awesome Pro 6.6.0 by @fontawesome - https://fontawesome.com License - https://fontawesome.com/license (Commercial License) Copyright 2024 Fonticons, Inc. --><path d="M80 0L96 0l0 16 0 48c0 53 43 96 96 96s96-43 96-96l0-48 0-16 16 0 16 0 0 16 0 48 0 60.6 62.6 140.9 1.4 3.1 0 3.4 0 224 0 16-16 0L16 512 0 512l0-16L0 272l0-3.4 1.4-3.1L64 124.6 64 64l0-48L64 0 80 0zM91 142.6L32 275.4 32 480l320 0 0-204.6L293 142.6c-23.4 30-60 49.4-101 49.4s-77.6-19.3-101-49.4z"/></svg>

<svg xmlns="http://www.w3.org/2000/svg" viewBox="0 0 384 512"><!--! Font Awesome Pro 6.5.2 by @fontawesome - https://fontawesome.com License - https://fontawesome.com/license (Commercial License) Copyright 2024 Fonticons, Inc. --><path d="M80 0H96V16 64c0 53 43 96 96 96s96-43 96-96V16 0h16 16V16 64v60.6l62.6 140.9 1.4 3.1V272 496v16H368 16 0V496 272v-3.4l1.4-3.1L64 124.6V64 16 0H80zM91 142.6L32 275.4V480H352V275.4L293 142.6c-23.4 30-60 49.4-101 49.4s-77.6-19.3-101-49.4z"/></svg>
